rospo-dark/16x16/actions/path-effect-parameter-next.svg

<svg height="16" viewBox="0 0 16 16" width="16" xmlns="http://www.w3.org/2000/svg"><path d="m14.5 1a1.5 1.5 0 0 0 -1.439453 1.0839844c-5.3311001 1.1017-10.0431407 4.6582219-10.9941408 10.9824216a1.5 1.5 0 0 0 -1.0664062 1.433594 1.5 1.5 0 0 0 1.5 1.5 1.5 1.5 0 0 0 1.5-1.5 1.5 1.5 0 0 0 -.9296875-1.386719c.9099-5.7885997 5.1127875-8.960931 10.0546875-10.019531a1.5 1.5 0 0 0 1.375.90625 1.5 1.5 0 0 0 1.5-1.5 1.5 1.5 0 0 0 -1.5-1.5zm-5.5 6v4.5 4.5l3.5-2.25 2.5-1.607422v3.857422h1v-4.5-4.5h-1v3.857422l-2.5-1.607422z" fill="#d3dae3"/></svg>

<?xml version="1.0" encoding="UTF-8" standalone="no"?>
<svg xmlns="http://www.w3.org/2000/svg" width="22" height="22" viewBox="0 0 22 22">
 <defs>
  <style type="text/css" id="current-color-scheme">
   .ColorScheme-Text { color:#d3dae3; } .ColorScheme-Highlight { color:#5294e2; }
  </style>
 </defs>
 <path style="fill:currentColor;opacity:1" class="ColorScheme-Text" transform="translate(3 3)" d="M 14.5 1 A 1.5 1.5 0 0 0 13.060547 2.0839844 C 7.7294469 3.1856844 3.0174063 6.7422063 2.0664062 13.066406 A 1.5 1.5 0 0 0 1 14.5 A 1.5 1.5 0 0 0 2.5 16 A 1.5 1.5 0 0 0 4 14.5 A 1.5 1.5 0 0 0 3.0703125 13.113281 C 3.9802125 7.3246813 8.1831 4.15235 13.125 3.09375 A 1.5 1.5 0 0 0 14.5 4 A 1.5 1.5 0 0 0 16 2.5 A 1.5 1.5 0 0 0 14.5 1 z M 9 7 L 9 11.5 L 9 16 L 12.5 13.75 L 15 12.142578 L 15 16 L 16 16 L 16 11.5 L 16 7 L 15 7 L 15 10.857422 L 12.5 9.25 L 9 7 z"/>
</svg>
